X:1
T:# / 5 haydn,  psalm 41: maker of all be thou my guard
%%score [ 1 2 3 ]
L:1/8
Q:1/4=90
M:2/2
K:D
V:1 treble nm="Soprano"
V:2 treble nm="Alto"
V:3 bass nm="Basso"
V:1
 f4 e2 e2 | !fermata!d4 z2 F2 | %2
w: ~Ma- ker of|all! Be|
"^Psalm 41""^Maker of all! Be thou my guard.""^(""^from""^: Six english Psalms)" G4 B4 | %3
w: Thou my|
 E4 z2"^Joseph Haydn""^1732 - 1809" E2 | A6 G2 |[M:2/2] !fermata!F4 z4 | d4 c2 d2 | B2 B2 A2 B2 | %8
w: guard, be|Thou my|guard,|give me, (my|strength by Thee re-|
 G4 z4 | e4 d2 e2 | c2 c2 B2 c2 | A4 z2 A2 | f6 e2 | d6 c2 | B2 A2 ^G2 (AB) | c2"^," A2 e4- | %16
w: \-pair'd)|give me to|teach the faith- less|band to|own, to|own the|jus- tice of thy *|hand, to own|
 e2 e2{e} d2 (cB) | A4 ^G4 | A2"^," c2 d2 f2 | e4 ^G4 | !fermata!A8 | E4 E2 E2 | E2 E2 E2 E2 | %23
w: * the jus- tice *|of thy|hand, the jus- tice|of thy|hand.|~So, while my|pray'rs in- dulg'd, ap-|
 E4 z2 A2 | ^A6 A2 | ^A2 A2 A2 A2 | B4 z2 B2 | =c6 c2 | =c2 c2 B2 A2 | G2"^," B2 e4- | %30
w: prove, my|soul the|ob- ject of thy|love, my|foes, with|in- ward an- guish|torn, shall each\_\_\_\_\_\_|
 e2 e2 !courtesy!=d2 !courtesy!^c2 | B4 ^A4 | B2 e2 f2 g2 | f4 ^A4 | !fermata!B6 d2 | d6 G2 | %36
w: \_\_ his blast- ed|tri- umphs|mourn, his blast- ed|tri- umphs|mourn. ~~~And|I, for|
 =c2 c2 c2 c2 | =c4 B2"^," e2 | e2 !courtesy!^c2 d2 d2 | d2 B2 c2"^," c2 | c2 ^A2 B2 (=cd) | %41
w: Thou thy aid shalt|yield * in|in- no- cence of|heart, up- held thy|courts shall ev- er *|
 e2 =c2 A2 (Bc) | d2 B2 G2 (AB) | =c2 c2 B2"^," B2 | A4 A4 | A2 A2 A2 A2 | !fermata!B6 d2 | %47
w: tread, and there the *|ful- ness of thy *|pre- sence share, the|ful- ness|of thy pre- sence|share. ~~~O|
 A4 B2 g2 | ^d4 e4 | g2 f2 e2 d2 | (d4 !courtesy!^c2)"^," A2 | e6 c2 | d2 A2 F2 D2 | %53
w: thank- ful, O|thank- ful|bless th'Al- might- y|Lord, * the|God by|Ja- cob's sons a-|
 !fermata!A6 E2 | E3 F (GA) (Bc) | d2 e2 f4 | z4 z2 d2 | d6 g2 | g6 (fe) | d4 c4 | d4 z4 | %61
w: dor'd; with|joy- ful hearts * his *|love pro- claim,|and|praise, O|praise his *|ho- ly|name.|
 z2 d2 c2 d2 | B2 B2 A2 B2 | G2 e2 d2 e2 | c2 c2 B2 c2 | A2"^," f2 e2 f2 | d2 d2 c2 d2 | %67
w: His fame, ere|time its course be-|gan, o'er heav'n's wide|re- gion ech- oing|ran; to him through|end- less a- ges|
 B2"^," (gf) e2 d2 | c2 A2 B2 c2 | d2 A2 A2 G2 | F2 A2 B2 c2 | d2 c2 d2 e2 | f2 d2 e2 f2 | g4 f4 | %74
w: raise one * song of|oft- re- peat- ed|praise, one song of|oft- re- peat- ed|praise, one song of|oft- re- peat- ed|praise, re-|
 e6 e2 | f4 z4 | z8 | z2!p! A2 A2 G2 | F2 A2 B2 c2 | d2 c2 d2 e2 | f2 d2 e2 f2 | g4"^," f4 | e8- | %83
w: peat- ed|praise,||one song of|oft- re- peat- ed|praise, one song of|oft- re- peat- ed|praise, re-|peat-|
 e4 e4 | !fermata!f8 |!f! d4 A2 F2 | !fermata!D4 z2!p! F2 | G4 B4 | E4 z2 E2 | A6 G2 | %90
w: * ed|praise.|Ma- ker of|all! Be|Thou my|guard, be|Thou my|
 F4 z2!f! B2 | A8 | c8 | !fermata!d8 |] %94
w: guard, be|Thou|my|guard.|
V:2
 A4 G2 G2 | !fermata!F4 z2 D2 | D4 D4 | C4 z2 C2 | C4 (D2 E2) |[M:2/2] !fermata!F4 z4 | z8 | z8 | %8
w: ~Ma \-ker of|all! Be|Thou my|guard, be|Thou my *|guard,|||
 G4 F2 G2 | E2 E2 F2 G2 | A4 z4 | A4 G2 A2 | F2 A2 d2 c2 | B2 F2 d2 d2 | d2 d2 d2 d2 | c4 z2 A2 | %16
w: give me, (my|strength by Thee re-|pair'd,~)|give me to|teach the faith- less|band to own the|jus- tice of thy|hand, the|
 f6 (ed) | c4 B4 | A2"^," A2 A2 d2 | c4 B4 | !fermata!A8 | C4 C2 C2 | D2 D2 D2 D2 | C4 z2 C2 | %24
w: jus- tice *|of thy|hand, the jus- tice|of thy|hand.|~So, while my|pray'rs in- dulg'd ap-|prove, my|
 C6 (EF) | G2 G2 G2 (GF) | F4 z2 F2 | F6 (FG) | A2 A2 G2 F2 | G4 z2 (EF) | G2 G2 F2 e2 | %31
w: soul the *|ob- ject of thy *|love, my|foes, with *|in- ward an- guish|torn, shall *|each his blast- ed|
 d4 !courtesy!^c4 | B2 B2 B2 (Bc) | d4 c4 | !fermata!B6 B2 | B6 G2 | G2 G2 F2 (GA) | %37
w: tri- umphs|mourn, his blast- ed *|tri- umphs|mourn. ~~~And|I, for|Thou thy aid shalt *|
 (A4 G2)"^," G2 | F2 F2 F2 F2 | E2 E2 E2"^," G2 | F2 F2 F2 F2 | E2 F^G A2 (FE) | D2 EF G2 G2 | %43
w: yield, * in|in- no- cence of|heart, up- held thy|courts shall ev- er|tread, and * there the *|ful- ness * of thy|
 G2 F2 G2"^," G2 | G4 G4 | G2 G2 F2 F2 | !fermata!G6 B2 | F4 G2 B2 | F4 G4 | B2 A2 G2 F2 | %50
w: pre- sence share, the|ful- ness|of thy pre- sence|share. ~~~O|thank- ful, O|thank- ful|bless th'Al- might- y|
 (F4 E2)"^," A2 | G6 G2 | F2 A2 F2 D2 | !fermata!A6 C2 | C3 D (EF) (GE) | A2 G2 F4 | z4 z2 F2 | %57
w: Lord, * the|God by|Ja- cob's sons a-|dor'd; with|joy- ful hearts * his *|love pro- claim,|and|
 F6 B2 | B6 (AG) | F4 E4 | F2"^," A2 G2 A2 | F2 F2 F2 F2 | G2 G2 F2 G2 | E2 G2 A2 B2 | A2 z2 z4 | %65
w: praise, o|praise his *|ho- ly|name 5.~His fame, ere|time its course be-|gan, o'er heav'n's wide|re- gion ech- oing|ran;|
 z2 F2 G2 A2 | B2 B2 A2 B2 | G2"^," (BA) G2 F2 | E2 C2 D2 E2 | F2 z2 z4 | z2 A2 A2 G2 | %71
w: to him through|end- less a- ges|raise one * song of|oft- re- peat- ed|praise,|one song of|
 F2 A2 B2 c2 | d2 B2 B2 B2 | (B2 c2) d4 | d4 c4 | d2"^,"!p! A2 A2 G2 | F2 A2 B2 c2 | d2 f2 f2 e2 | %78
w: oft- re- peat- ed|praise, one song of|oft- * re-|peat- ed|praise, one song of|oft- re- peat- ed|praise, one song of|
 d2 A2 A2 G2 | F2 A2 B2 c2 | d2 B2 B2 B2 | (B2 c2)"^," d4 | d8 | c8 | !fermata!d8 |!f! d4 A2 F2 | %86
w: oft- re- peat- ed|praise, one song of|oft- re- peat- ed|praise , re-|peat-|ed|praise.|Ma- ker of|
 !fermata!D4 z2!p! D2 | D4 D4 | C4 z2 C2 | C4 (D2 E2) | F4 z2!f! G2 | F8 | G8 | !fermata!F8 |] %94
w: ail! Be|Thou my|guard, be|Thou my *|guard, be|Thou|my|guard.|
V:3
 D,4 A,2 A,2 | !fermata!D,4 z2 D,2 | B,,4 G,,4 | A,,4 z2 A,,2 | A,,4 (B,,2 C,2) | %5
w: ~Ma- ker of|all! Be|Thou my|guard, be|Thou my *|
[M:2/2] !fermata!D,4 z4 | z8 | G,4 F,2 G,2 | E,2 E,2 D,2 E,2 | C,4 z4 | A,4 G,2 A,2 | %11
w: guard,||give me, (my|strength by Thee re-|pair'd,~)|give me to|
 F,2 F,2 E,2 F,2 | D,4 z2 F,2 | B,6 A,2 | ^G,2 F,2 E,2 (F,G,) | A,4 z2 C,2 | D,2 A,2 D2 D2 | %17
w: teach the faith- less|band to|own the|jus- tice of thy *|hand, to|own the jus- tice|
 C4 E,4 | A,2 !courtesy!=G,2 F,2 D,2 | E,4 E,4 | !fermata!A,8 | A,4 A,2 A,2 | ^G,2 G,2 G,2 G,2 | %23
w: of thy|hand, the jus- tice|of thy|hand.|~So, while my|pray'rs in \-dulg'd ap-|
 A,4 z2 (A,^G,) | F,6 F,2 | E,2 E,2 E,2 E,2 | D,4 z2 D,2 | D6 D2 | ^D2 D2 D2 D2 | %29
w: prove my *|soul the|ob- ject of thy|love, my|foes, with|in- ward an- guish|
 E4 z2 (!courtesy!^CB,) | ^A,2 A,2 B,2 E,2 | F,6 F,2 | G,2 G,2 F,2 E,2 | F,6 F,2 | %34
w: torn, shall *|each his blast- ed|tri- umphs|mourn, his blast- ed|tri- umphs|
 !fermata!B,,6 G,2 | G,6 B,2 | A,2 A,2 D,2 (E,F,) | G,6 z2 | z8 | z4 z2 D2 | D2 D2 D2 (=CB,) | %41
w: mourn. ~~~~And|I, for|Thou thy aid shalt *|yield,||thy|courts shall ev- er *|
 =C2 C2 C2 C2 | B,2 (=CD) E2 (CB,) | A,2 A,2 G,2"^," G,2 | =C2 C2 ^C2 C2 | D4 D,4 | %46
w: tread, and there the|ful- ness * of thy *|pre- sence share, the|ful- ness of thy|pre- sence|
 !fermata!G,6 G,2 | D4 G,2 E,2 | B,4 E,4 | E,2 F,2 G,2 ^G,2 | A,6"^," A,2 | !courtesy!^C6 A,2 | %52
w: share. ~~~O|thank- ful, O|thank- ful|bless th'Al- might- y|Lord, the|God by|
 D2 A,2 F,2 D,2 | !fermata!A,6 A,2 | A,3 A, (G,F,) (E,A,) | F,2 E,2 D,4 | z4 z2 B,2 | B,6 E,2 | %58
w: Ja- cob's sons a-|dor'd; with|joy- ful hearts * his *|love pro- claim,|and|praise, O|
 E,6 (F,G,) | A,4 A,,4 | D,2"^," F,2 E,2 F,2 | D,2 B,2 A,2 B,2 | G,2 z2 z4 | z2 E,2 F,2 G,2 | %64
w: praise his *|ho- ly|name. 5.~His fame, ere|time its course be-|gan,|o'er heav'n's wide|
 A,2 A,2 G,2 A,2 | F,2 z2 z4 | z8 | z2 (E,F,) G,2 ^G,2 | A,2 A,2 A,2 !courtesy!=G,2 | %69
w: re- gion ech- oing|ran;||to * him through|end- less a- ges|
 F,2 A,2 B,2 C2 | D2 C2 D2 E2 | F2 A,2 A,2 G,2 | F,2 (B,A,) G,2 F,2 | E,4 D,4 | A,6 A,2 | %75
w: raise, one song of|oft- re- peat- ed|praise, one song of|oft- re- * peat- ed|praise, re-|peat- ed|
 D,2"^,"!p! A,2 B,2 C2 | D2 A,2 A,2 G,2 | F,2 A,2 B,2 C2 | D2 C2 D2 E2 | F2 A,2 A,2 G,2 | %80
w: praise, one song of|oft- re- peat- ed|praise, one song of|oft- re- peat- ed|praise, one song of|
 F,2 (B,A,) G,2 F,2 | E,4"^," D,4 | A,8- | A,4 A,4 | !fermata!D,8 |!f! D4 A,2 F,2 | %86
w: oft- re- * peat- ed|praise, re-|peat-|* ed|praise.|Ma- ker of|
 !fermata!D,4 z2!p! D,2 | B,,4 G,,4 | A,,4 z2 A,,2 | A,,4 (B,,2 C,2) | D,4 z2!f! G,,2 | A,,8 | %92
w: all! Be|Thou my|guard, be|Thou my *|guard, be|Thou|
 A,,8 | !fermata!D,8 |] %94
w: my|guard.|

